icon-themes/breeze_svg/cmd/sc_numberformatpercent.svg

<svg xmlns="http://www.w3.org/2000/svg" viewBox="0 0 16 16">
     />
 <path 
     style="fill:#4d4d4d" 
     d="M 4.5 2 C 3.1192882 2 2 3.1192881 2 4.5 C 2 5.8807119 3.1192882 7 4.5 7 C 5.8807118 7 7 5.8807119 7 4.5 C 7 3.1192881 5.8807118 2 4.5 2 z M 11.40625 2 L 3.78125 13.4375 L 4.59375 14 L 12.21875 2.5625 L 11.40625 2 z M 4.5 3 C 5.3284271 3 6 3.6715728 6 4.5 C 6 5.3284272 5.3284271 6 4.5 6 C 3.6715729 6 3 5.3284272 3 4.5 C 3 3.6715728 3.6715729 3 4.5 3 z M 11.5 9 C 10.119288 9 9 10.119253 9 11.5 C 9 12.880672 10.119288 14 11.5 14 C 12.880712 14 14 12.880672 14 11.5 C 14 10.119253 12.880712 9 11.5 9 z M 11.5 10 C 12.328427 10 13 10.671552 13 11.5 C 13 12.328373 12.328427 13 11.5 13 C 10.671572 13 10 12.328373 10 11.5 C 10 10.671552 10.671573 10 11.5 10 z "
     />
 </svg>

<svg viewBox="0 0 16 16" xmlns="http://www.w3.org/2000/svg">/&gt;<path d="m4.5 2c-1.3807118 0-2.5 1.1192881-2.5 2.5s1.1192882 2.5 2.5 2.5 2.5-1.1192881 2.5-2.5-1.1192882-2.5-2.5-2.5zm6.90625 0-7.625 11.4375.8125.5625 7.625-11.4375zm-6.90625 1c.8284271 0 1.5.6715728 1.5 1.5s-.6715729 1.5-1.5 1.5-1.5-.6715728-1.5-1.5.6715729-1.5 1.5-1.5zm7 6c-1.380712 0-2.5 1.119253-2.5 2.5 0 1.380672 1.119288 2.5 2.5 2.5s2.5-1.119328 2.5-2.5c0-1.380747-1.119288-2.5-2.5-2.5zm0 1c.828427 0 1.5.671552 1.5 1.5 0 .828373-.671573 1.5-1.5 1.5-.828428 0-1.5-.671627-1.5-1.5 0-.828448.671573-1.5 1.5-1.5z" fill="#4d4d4d"/></svg>
